Images/SVG Icons/express.svg

<?xml version="1.0" encoding="UTF-8" standalone="no"?>
<svg width="512px" height="149px" viewBox="0 0 512 149" version="1.1" xmlns="http://www.w3.org/2000/svg" xmlns:xlink="http://www.w3.org/1999/xlink" preserveAspectRatio="xMidYMid">
    <g>
        <path d="M3.33224862,115.629027 L3.33224862,58.6475756 L74.4757566,58.6475756 L74.4757566,55.315327 L3.33224862,55.315327 L3.33224862,3.33224862 L78.9742922,3.33224862 L78.9742922,0 L-3.55271368e-15,0 L-3.55271368e-15,118.961276 L79.640742,118.961276 L79.640742,115.629027 L3.33224862,115.629027 L3.33224862,115.629027 Z M143.786528,33.3224862 L114.296128,72.1431826 L85.472177,33.3224862 L81.1402538,33.3224862 L112.296778,74.642369 L78.14123,118.961276 L82.1399284,118.961276 L114.296128,77.1415554 L146.618939,118.961276 L150.78425,118.961276 L116.462089,74.642369 L147.785226,33.3224862 L143.786528,33.3224862 L143.786528,33.3224862 Z M160.780996,148.285063 L160.780996,94.9690856 L161.114221,94.9690856 C163.11358,102.744371 167.056701,108.992275 172.943703,113.712984 C178.830705,118.433693 186.32819,120.794012 195.436381,120.794012 C201.323384,120.794012 206.543854,119.599969 211.09795,117.211845 C215.652046,114.823722 219.456324,111.574812 222.510902,107.465018 C225.565478,103.355224 227.898028,98.5790488 229.508624,93.1363488 C231.119218,87.6936488 231.924504,81.973346 231.924504,75.9752684 C231.924504,69.532889 231.09145,63.5904384 229.425318,58.1477384 C227.759184,52.7050384 225.343328,47.9844 222.177676,43.9856818 C219.012024,39.9869634 215.179976,36.8768958 210.681418,34.6553856 C206.18286,32.4338754 201.101232,31.323137 195.436381,31.323137 C191.104437,31.323137 187.07801,31.9618116 183.35698,33.23918 C179.635951,34.5165484 176.331504,36.3214982 173.443541,38.654084 C170.555577,40.9866696 168.056416,43.7357472 165.945981,46.9013992 C163.835546,50.0670512 162.224976,53.5381088 161.114221,57.3146762 L160.780996,57.3146762 L160.780996,33.3224862 L157.448747,33.3224862 L157.448747,148.285063 L160.780996,148.285063 L160.780996,148.285063 Z M195.436381,117.628376 C184.995284,117.628376 176.609208,114.046245 170.277904,106.881874 C163.9466,99.717504 160.780996,89.415405 160.780996,75.9752684 C160.780996,70.421493 161.558513,65.1454854 163.11357,60.1470876 C164.668627,55.1486896 166.917872,50.7612728 169.861373,46.9847054 C172.804874,43.2081382 176.442543,40.2091444 180.774487,37.9876342 C185.106432,35.766124 189.993681,34.6553856 195.436381,34.6553856 C200.990156,34.6553856 205.849638,35.766124 210.01497,37.9876342 C214.1803,40.2091444 217.62359,43.2359066 220.34494,47.0680118 C223.06629,50.9001168 225.121156,55.2875336 226.5096,60.2303938 C227.898044,65.173254 228.592256,70.421493 228.592256,75.9752684 C228.592256,80.9736664 227.95358,85.9442208 226.676212,90.887081 C225.398844,95.8299412 223.427284,100.272895 220.76147,104.216075 C218.095658,108.159256 214.680138,111.380398 210.514806,113.879596 C206.349474,116.378795 201.323384,117.628376 195.436381,117.628376 L195.436381,117.628376 L195.436381,117.628376 Z M250.251872,118.961276 L250.251872,70.4770582 C250.251872,65.8118868 250.918314,61.2578592 252.25122,56.814839 C253.584126,52.3718186 255.638992,48.4564656 258.41588,45.0686626 C261.192768,41.6808596 264.719362,39.0150872 268.99577,37.0712658 C273.272176,35.1274444 278.353806,34.322159 284.240808,34.6553856 L284.240808,31.323137 C279.131334,31.2120614 274.660612,31.7674308 270.828506,32.9892614 C266.996402,34.211092 263.691954,35.8771996 260.915066,37.9876342 C258.138178,40.098069 255.916702,42.569462 254.25057,45.4018874 C252.584436,48.2343128 251.362624,51.2610752 250.585096,54.4822648 L250.251872,54.4822648 L250.251872,33.3224862 L246.919622,33.3224862 L246.919622,118.961276 L250.251872,118.961276 L250.251872,118.961276 Z M288.406118,76.8083306 L360.049464,76.8083306 C360.271614,70.9213286 359.688476,65.2565626 358.300032,59.8138626 C356.911588,54.3711628 354.690112,49.5394506 351.635536,45.3185812 C348.580958,41.0977118 344.637838,37.7099596 339.806052,35.155223 C334.974268,32.6004862 329.226196,31.323137 322.561666,31.323137 C317.78542,31.323137 313.120318,32.3228016 308.566222,34.3221608 C304.012126,36.32152 300.013468,39.2372084 296.570126,43.0693134 C293.126786,46.9014184 290.34994,51.5942884 288.239506,57.1480638 C286.12907,62.7018392 285.07387,69.0330484 285.07387,76.1418808 C285.07387,82.473185 285.79585,88.387867 287.23983,93.8861048 C288.683812,99.3843424 290.90529,104.160518 293.904328,108.214774 C296.903366,112.26903 300.763182,115.406866 305.483892,117.628376 C310.204602,119.849886 315.897136,120.905088 322.561666,120.794012 C332.33631,120.794012 340.555776,118.044935 347.220306,112.546697 C353.884836,107.048459 357.827958,99.3010588 359.049788,89.304263 L355.71754,89.304263 C354.273558,98.7456812 350.580352,105.826639 344.637814,110.547348 C338.695274,115.268057 331.225558,117.628376 322.228442,117.628376 C316.119288,117.628376 310.954354,116.573175 306.733486,114.46274 C302.512616,112.352305 299.069326,109.464385 296.403514,105.798894 C293.737702,102.133402 291.766142,97.8292904 290.488774,92.8864302 C289.211404,87.94357 288.517194,82.5842572 288.406118,76.8083306 L288.406118,76.8083306 L288.406118,76.8083306 Z M356.717214,73.476082 L288.406118,73.476082 C288.739344,67.4780046 289.850082,62.0909232 291.738366,57.3146762 C293.62665,52.5384294 296.098044,48.4564656 299.15262,45.0686626 C302.207196,41.6808596 305.76156,39.0983926 309.815816,37.3211846 C313.870072,35.5439764 318.22972,34.6553856 322.89489,34.6553856 C328.448666,34.6553856 333.335916,35.6828186 337.556784,37.7377156 C341.777654,39.7926126 345.304248,42.597227 348.136674,46.1516434 C350.9691,49.7060596 353.107272,53.8435602 354.551252,58.5642694 C355.995234,63.2849786 356.717214,68.255533 356.717214,73.476082 L356.717214,73.476082 L356.717214,73.476082 Z M429.193622,58.6475756 L432.52587,58.6475756 C432.52587,49.0950818 429.749024,42.1529666 424.195248,37.8210218 C418.641474,33.489077 411.088452,31.323137 401.535958,31.323137 C396.204334,31.323137 391.705844,31.98958 388.040352,33.3224862 C384.37486,34.6553922 381.375866,36.3770368 379.04328,38.4874716 C376.710694,40.5979062 375.044586,42.930457 374.044908,45.4851936 C373.045228,48.0399304 372.545396,50.4835548 372.545396,52.8161406 C372.545396,57.481312 373.37845,61.2022858 375.044582,63.9791734 C376.710714,66.7560612 379.32095,68.9220012 382.875366,70.4770582 C385.319028,71.5878134 388.095874,72.587478 391.205988,73.476082 C394.316102,74.364686 397.926002,75.3088138 402.035796,76.3084934 C405.701288,77.1970974 409.311188,78.0856882 412.865604,78.9742922 C416.42002,79.8628962 419.557856,81.0569402 422.279206,82.5564594 C425.000556,84.0559788 427.222032,85.9720026 428.943704,88.3045884 C430.665374,90.637174 431.526196,93.6917048 431.526196,97.468272 C431.526196,101.133764 430.665374,104.243831 428.943704,106.798568 C427.222032,109.353305 425.028324,111.435939 422.362512,113.046534 C419.6967,114.657129 416.725474,115.823405 413.448748,116.545395 C410.17202,117.267386 406.978646,117.628376 403.868532,117.628376 C393.760662,117.628376 386.01326,115.379131 380.626098,110.880573 C375.238936,106.382015 372.545396,99.3010572 372.545396,89.6374878 L369.213146,89.6374878 C369.213146,100.411812 372.128836,108.298055 377.9603,113.296453 C383.791764,118.294851 392.427754,120.794012 403.868532,120.794012 C407.534024,120.794012 411.22723,120.377485 414.94826,119.544419 C418.669288,118.711353 422.001504,117.350698 424.945004,115.462415 C427.888506,113.574131 430.276594,111.130506 432.10934,108.131468 C433.942086,105.132429 434.858444,101.466992 434.858444,97.1350472 C434.858444,93.0252534 434.05316,89.693038 432.442564,87.1383014 C430.83197,84.5835646 428.721566,82.4731616 426.111292,80.807029 C423.501018,79.1408964 420.55756,77.8357786 417.280834,76.8916368 C414.004106,75.947495 410.699658,75.0311358 407.367394,74.1425318 C402.702222,72.9207012 398.620258,71.8654996 395.12138,70.9768956 C391.622502,70.0882914 388.373592,69.03309 385.374552,67.8112594 C382.48659,66.5894288 380.181808,64.8400158 378.460136,62.5629678 C376.738466,60.2859198 375.877644,57.03701 375.877644,52.8161406 C375.877644,52.038612 376.099792,50.650189 376.544094,48.6508298 C376.988396,46.6514706 378.043598,44.624373 379.70973,42.569476 C381.375862,40.5145792 383.93056,38.6818608 387.373902,37.0712658 C390.817242,35.460671 395.53788,34.6553856 401.535958,34.6553856 C405.645752,34.6553856 409.394494,35.099681 412.782298,35.988285 C416.1701,36.8768892 419.085788,38.2930806 421.52945,40.236902 C423.973112,42.1807234 425.861366,44.6521164 427.194272,47.6511552 C428.527178,50.650194 429.193622,54.3156308 429.193622,58.6475756 L429.193622,58.6475756 L429.193622,58.6475756 Z M506.335178,58.6475756 L509.667426,58.6475756 C509.667426,49.0950818 506.89058,42.1529666 501.336804,37.8210218 C495.783028,33.489077 488.230008,31.323137 478.677514,31.323137 C473.34589,31.323137 468.847398,31.98958 465.181906,33.3224862 C461.516416,34.6553922 458.517422,36.3770368 456.184836,38.4874716 C453.85225,40.5979062 452.186142,42.930457 451.186462,45.4851936 C450.186784,48.0399304 449.68695,50.4835548 449.68695,52.8161406 C449.68695,57.481312 450.520004,61.2022858 452.186138,63.9791734 C453.85227,66.7560612 456.462506,68.9220012 460.016922,70.4770582 C462.460582,71.5878134 465.237428,72.587478 468.347544,73.476082 C471.457658,74.364686 475.067558,75.3088138 479.177352,76.3084934 C482.842842,77.1970974 486.452742,78.0856882 490.00716,78.9742922 C493.561576,79.8628962 496.699412,81.0569402 499.420762,82.5564594 C502.142112,84.0559788 504.363588,85.9720026 506.085258,88.3045884 C507.80693,90.637174 508.667752,93.6917048 508.667752,97.468272 C508.667752,101.133764 507.80693,104.243831 506.085258,106.798568 C504.363588,109.353305 502.16988,111.435939 499.504068,113.046534 C496.838256,114.657129 493.86703,115.823405 490.590302,116.545395 C487.313576,117.267386 484.120202,117.628376 481.010088,117.628376 C470.902216,117.628376 463.154816,115.379131 457.767654,110.880573 C452.380492,106.382015 449.68695,99.3010572 449.68695,89.6374878 L446.354702,89.6374878 C446.354702,100.411812 449.27039,108.298055 455.101854,113.296453 C460.93332,118.294851 469.56931,120.794012 481.010088,120.794012 C484.67558,120.794012 488.368784,120.377485 492.089814,119.544419 C495.810844,118.711353 499.14306,117.350698 502.08656,115.462415 C505.030062,113.574131 507.418148,111.130506 509.250894,108.131468 C511.08364,105.132429 512,101.466992 512,97.1350472 C512,93.0252534 511.194714,89.693038 509.58412,87.1383014 C507.973524,84.5835646 505.863122,82.4731616 503.252848,80.807029 C500.642572,79.1408964 497.699116,77.8357786 494.422388,76.8916368 C491.145662,75.947495 487.841214,75.0311358 484.508948,74.1425318 C479.843778,72.9207012 475.761814,71.8654996 472.262936,70.9768956 C468.764056,70.0882914 465.515146,69.03309 462.516108,67.8112594 C459.628144,66.5894288 457.323362,64.8400158 455.601692,62.5629678 C453.880022,60.2859198 453.0192,57.03701 453.0192,52.8161406 C453.0192,52.038612 453.241348,50.650189 453.68565,48.6508298 C454.129952,46.6514706 455.185152,44.624373 456.851286,42.569476 C458.517418,40.5145792 461.072116,38.6818608 464.515458,37.0712658 C467.958798,35.460671 472.679436,34.6553856 478.677514,34.6553856 C482.787308,34.6553856 486.53605,35.099681 489.923852,35.988285 C493.311656,36.8768892 496.227344,38.2930806 498.671006,40.236902 C501.114666,42.1807234 503.002922,44.6521164 504.335828,47.6511552 C505.668734,50.650194 506.335178,54.3156308 506.335178,58.6475756 L506.335178,58.6475756 L506.335178,58.6475756 Z" fill="#FFF"></path>
    </g>
</svg>

<svg width="2500" height="728" viewBox="0 0 512 149" xmlns="http://www.w3.org/2000/svg"><path d="M3.332 115.629V58.648h71.144v-3.333H3.332V3.332h75.642V0H0v118.961h79.64v-3.332H3.333zm140.455-82.307l-29.49 38.821-28.825-38.82H81.14l31.157 41.32L78.14 118.96h3.999l32.156-41.82 32.323 41.82h4.165l-34.322-44.319 31.323-41.32h-3.998zm16.994 114.963V94.97h.333c2 7.775 5.943 14.023 11.83 18.744 5.887 4.72 13.384 7.081 22.492 7.081 5.887 0 11.108-1.194 15.662-3.582s8.358-5.637 11.413-9.747c3.054-4.11 5.387-8.886 6.998-14.329 1.61-5.442 2.416-11.163 2.416-17.16 0-6.443-.834-12.386-2.5-17.828-1.666-5.443-4.082-10.164-7.247-14.162-3.166-3.999-6.998-7.11-11.497-9.33-4.498-2.222-9.58-3.333-15.245-3.333-4.332 0-8.358.639-12.079 1.916-3.721 1.278-7.025 3.082-9.913 5.415a36.674 36.674 0 0 0-7.498 8.247c-2.11 3.166-3.721 6.637-4.832 10.414h-.333V33.322h-3.332v114.963h3.332zm34.655-30.657c-10.44 0-18.827-3.582-25.158-10.746-6.331-7.164-9.497-17.467-9.497-30.907 0-5.554.778-10.83 2.333-15.828 1.555-4.998 3.804-9.386 6.747-13.162 2.944-3.777 6.582-6.776 10.913-8.997 4.332-2.222 9.22-3.333 14.662-3.333 5.554 0 10.414 1.111 14.579 3.333 4.165 2.221 7.609 5.248 10.33 9.08s4.776 8.22 6.165 13.162c1.388 4.943 2.082 10.191 2.082 15.745 0 4.999-.638 9.97-1.916 14.912-1.277 4.943-3.249 9.386-5.915 13.33-2.665 3.942-6.08 7.163-10.246 9.663-4.166 2.499-9.192 3.748-15.079 3.748zm54.816 1.333V70.477c0-4.665.666-9.22 2-13.662 1.332-4.443 3.387-8.359 6.164-11.746 2.777-3.388 6.303-6.054 10.58-7.998 4.276-1.944 9.358-2.749 15.245-2.416v-3.332c-5.11-.11-9.58.444-13.412 1.666-3.833 1.222-7.137 2.888-9.914 4.999-2.777 2.11-4.998 4.581-6.664 7.414a33.15 33.15 0 0 0-3.666 9.08h-.333v-21.16h-3.332v85.64h3.332zm38.154-42.153h71.643c.223-5.887-.36-11.551-1.749-16.994-1.388-5.443-3.61-10.275-6.664-14.495-3.055-4.221-6.998-7.609-11.83-10.164-4.832-2.555-10.58-3.832-17.244-3.832-4.777 0-9.442 1-13.996 3-4.554 1.999-8.553 4.914-11.996 8.746-3.443 3.832-6.22 8.525-8.33 14.08-2.11 5.553-3.166 11.884-3.166 18.993 0 6.331.722 12.246 2.166 17.744 1.444 5.498 3.665 10.275 6.664 14.329 3 4.054 6.86 7.192 11.58 9.413 4.72 2.222 10.413 3.277 17.078 3.166 9.774 0 17.994-2.75 24.658-8.247 6.665-5.499 10.608-13.246 11.83-23.243h-3.332c-1.444 9.442-5.138 16.523-11.08 21.243-5.943 4.721-13.412 7.081-22.41 7.081-6.109 0-11.274-1.055-15.495-3.165-4.22-2.11-7.664-4.999-10.33-8.664-2.665-3.666-4.637-7.97-5.914-12.913-1.278-4.942-1.972-10.302-2.083-16.078zm68.311-3.332h-68.31c.332-5.998 1.443-11.385 3.331-16.161 1.889-4.777 4.36-8.859 7.415-12.246 3.054-3.388 6.609-5.97 10.663-7.748 4.054-1.777 8.414-2.666 13.079-2.666 5.554 0 10.44 1.028 14.662 3.083 4.22 2.055 7.747 4.86 10.58 8.414 2.832 3.554 4.97 7.692 6.414 12.412 1.444 4.721 2.166 9.692 2.166 14.912zm72.477-14.828h3.332c0-9.553-2.777-16.495-8.33-20.827-5.555-4.332-13.108-6.498-22.66-6.498-5.332 0-9.83.667-13.496 2-3.665 1.332-6.664 3.054-8.997 5.164-2.332 2.11-3.998 4.443-4.998 6.998-1 2.555-1.5 4.999-1.5 7.331 0 4.665.833 8.386 2.5 11.163 1.666 2.777 4.276 4.943 7.83 6.498 2.444 1.11 5.22 2.11 8.331 3 3.11.888 6.72 1.832 10.83 2.831 3.665.89 7.275 1.778 10.83 2.666 3.554.889 6.692 2.083 9.413 3.582 2.722 1.5 4.943 3.416 6.665 5.749 1.721 2.332 2.582 5.387 2.582 9.163 0 3.666-.86 6.776-2.582 9.33a20.815 20.815 0 0 1-6.581 6.249c-2.666 1.61-5.638 2.776-8.914 3.498-3.277.722-6.47 1.083-9.58 1.083-10.108 0-17.856-2.249-23.243-6.747-5.387-4.499-8.08-11.58-8.08-21.244h-3.333c0 10.775 2.916 18.661 8.747 23.66 5.832 4.998 14.468 7.497 25.909 7.497 3.665 0 7.358-.417 11.08-1.25 3.72-.833 7.053-2.193 9.996-4.082a22.592 22.592 0 0 0 7.164-7.33c1.833-3 2.75-6.665 2.75-10.997 0-4.11-.806-7.442-2.416-9.997-1.611-2.554-3.721-4.665-6.332-6.331-2.61-1.666-5.553-2.971-8.83-3.915a516.08 516.08 0 0 0-9.914-2.75 1726.675 1726.675 0 0 0-12.246-3.165c-3.498-.889-6.747-1.944-9.746-3.166-2.888-1.222-5.193-2.971-6.915-5.248-1.722-2.277-2.582-5.526-2.582-9.747 0-.777.222-2.166.666-4.165.444-2 1.5-4.027 3.166-6.082 1.666-2.054 4.22-3.887 7.664-5.498 3.443-1.61 8.164-2.416 14.162-2.416 4.11 0 7.858.445 11.246 1.333 3.388.889 6.304 2.305 8.747 4.249 2.444 1.944 4.332 4.415 5.665 7.414 1.333 3 2 6.665 2 10.997zm77.141 0h3.332c0-9.553-2.776-16.495-8.33-20.827-5.554-4.332-13.107-6.498-22.66-6.498-5.331 0-9.83.667-13.495 2-3.666 1.332-6.665 3.054-8.997 5.164-2.333 2.11-3.999 4.443-4.999 6.998-1 2.555-1.499 4.999-1.499 7.331 0 4.665.833 8.386 2.5 11.163 1.665 2.777 4.276 4.943 7.83 6.498 2.444 1.11 5.22 2.11 8.33 3 3.11.888 6.72 1.832 10.83 2.831 3.666.89 7.276 1.778 10.83 2.666 3.555.889 6.692 2.083 9.414 3.582 2.721 1.5 4.943 3.416 6.664 5.749 1.722 2.332 2.583 5.387 2.583 9.163 0 3.666-.861 6.776-2.583 9.33a20.815 20.815 0 0 1-6.58 6.249c-2.667 1.61-5.638 2.776-8.915 3.498-3.276.722-6.47 1.083-9.58 1.083-10.108 0-17.855-2.249-23.242-6.747-5.388-4.499-8.081-11.58-8.081-21.244h-3.332c0 10.775 2.915 18.661 8.747 23.66 5.831 4.998 14.467 7.497 25.908 7.497 3.666 0 7.359-.417 11.08-1.25 3.72-.833 7.053-2.193 9.997-4.082a22.592 22.592 0 0 0 7.164-7.33c1.833-3 2.749-6.665 2.749-10.997 0-4.11-.805-7.442-2.416-9.997-1.61-2.554-3.72-4.665-6.331-6.331-2.61-1.666-5.554-2.971-8.83-3.915a516.071 516.071 0 0 0-9.914-2.75 1726.65 1726.65 0 0 0-12.246-3.165c-3.499-.889-6.748-1.944-9.747-3.166-2.888-1.222-5.193-2.971-6.914-5.248-1.722-2.277-2.583-5.526-2.583-9.747 0-.777.222-2.166.667-4.165.444-2 1.5-4.027 3.165-6.082 1.666-2.054 4.221-3.887 7.664-5.498 3.444-1.61 8.164-2.416 14.163-2.416 4.11 0 7.858.445 11.246 1.333 3.388.889 6.303 2.305 8.747 4.249 2.444 1.944 4.332 4.415 5.665 7.414 1.333 3 2 6.665 2 10.997z" fill="#222"/></svg>
